X:229
T:Lackstr\"oms polska
R:sl\"angpolska
H:ur Tr\"astadsamlingen fr{\aa}n Blackstad
A:Sm{\aa}land
Z:id:hn-sp-229
M:3/4
L:1/16
K:Dm
A2d2 d2^c2 d2e2 | e2f2 f2e^c d4 | A4 d2^c2 d2e2 |
efed =cdcB ABcA | A2d2 d2^c2 d2e2 | e2f2 f2e^c d4 |
dfaf =cege dfaf | f2e^c d8 :||: d2(3efg a4 a4 | a2ga b2ag a4 |
e3f g2g2 g2a2 | f2ef d8 | A4 d2^c2 d2e2 | e2f2 f2e^c d4 |
dfaf =cege dfaf | f2e^c d8 :|

